nextjs-client/assets/icons/twitter.svg

<?xml version="1.0" encoding="utf-8"?>
<!-- Generator: Adobe Illustrator 24.2.3, SVG Export Plug-In . SVG Version: 6.00 Build 0)  -->
<svg version="1.1" id="Layer_1" xmlns="http://www.w3.org/2000/svg" xmlns:xlink="http://www.w3.org/1999/xlink" x="0px" y="0px"
	 viewBox="0 0 400 400" style="enable-background:new 0 0 400 400;" xml:space="preserve">
<style type="text/css">
	.st0{fill:#cd192a;}
	.st1{fill:#a1a1a1;}
</style>
<g id="Dark_Blue">
	<circle class="st0" cx="200" cy="200" r="200"/>
</g>
<g id="Logo__x2014__FIXED">
	<path class="st1" d="M163.4,305.5c88.7,0,137.2-73.5,137.2-137.2c0-2.1,0-4.2-0.1-6.2c9.4-6.8,17.6-15.3,24.1-25
		c-8.6,3.8-17.9,6.4-27.7,7.6c10-6,17.6-15.4,21.2-26.7c-9.3,5.5-19.6,9.5-30.6,11.7c-8.8-9.4-21.3-15.2-35.2-15.2
		c-26.6,0-48.2,21.6-48.2,48.2c0,3.8,0.4,7.5,1.3,11c-40.1-2-75.6-21.2-99.4-50.4c-4.1,7.1-6.5,15.4-6.5,24.2
		c0,16.7,8.5,31.5,21.5,40.1c-7.9-0.2-15.3-2.4-21.8-6c0,0.2,0,0.4,0,0.6c0,23.4,16.6,42.8,38.7,47.3c-4,1.1-8.3,1.7-12.7,1.7
		c-3.1,0-6.1-0.3-9.1-0.9c6.1,19.2,23.9,33.1,45,33.5c-16.5,12.9-37.3,20.6-59.9,20.6c-3.9,0-7.7-0.2-11.5-0.7
		C110.8,297.5,136.2,305.5,163.4,305.5"/>
</g>
</svg>

<?xml version="1.0" encoding="UTF-8" standalone="no"?>
<!DOCTYPE svg PUBLIC "-//W3C//DTD SVG 1.1//EN" "http://www.w3.org/Graphics/SVG/1.1/DTD/svg11.dtd">
<svg width="100%" height="100%" viewBox="0 0 400 400" version="1.1" xmlns="http://www.w3.org/2000/svg" xmlns:xlink="http://www.w3.org/1999/xlink" xml:space="preserve" xmlns:serif="http://www.serif.com/" style="fill-rule:evenodd;clip-rule:evenodd;stroke-linejoin:round;stroke-miterlimit:2;">
    <g id="Dark_Blue">
    </g>
    <g id="Logo__x2014__FIXED">
        <path d="M200,0C310.383,0 400,89.617 400,200C400,310.383 310.383,400 200,400C89.617,400 0,310.383 0,200C0,89.617 89.617,0 200,0ZM163.4,305.5C252.1,305.5 300.6,232 300.6,168.3C300.6,166.2 300.6,164.1 300.5,162.1C309.9,155.3 318.1,146.8 324.6,137.1C316,140.9 306.7,143.5 296.9,144.7C306.9,138.7 314.5,129.3 318.1,118C308.8,123.5 298.5,127.5 287.5,129.7C278.7,120.3 266.2,114.5 252.3,114.5C225.7,114.5 204.1,136.1 204.1,162.7C204.1,166.5 204.5,170.2 205.4,173.7C165.3,171.7 129.8,152.5 106,123.3C101.9,130.4 99.5,138.7 99.5,147.5C99.5,164.2 108,179 121,187.6C113.1,187.4 105.7,185.2 99.2,181.6L99.2,182.2C99.2,205.6 115.8,225 137.9,229.5C133.9,230.6 129.6,231.2 125.2,231.2C122.1,231.2 119.1,230.9 116.1,230.3C122.2,249.5 140,263.4 161.1,263.8C144.6,276.7 123.8,284.4 101.2,284.4C97.3,284.4 93.5,284.2 89.7,283.7C110.8,297.5 136.2,305.5 163.4,305.5Z" style="fill:rgb(205,25,42);"/>
    </g>
</svg>
